packages/sources/icons/src/vitamix/image-fill.svg

<svg width="16" height="16" viewBox="0 0 16 16" xmlns="http://www.w3.org/2000/svg"><path fill-rule="evenodd" clip-rule="evenodd" d="M1.33337 2.662C1.33591 2.2977 1.63041 2.00291 1.99471 2H14.0054C14.3707 2 14.6667 2.29667 14.6667 2.662V13.338C14.6642 13.7023 14.3697 13.9971 14.0054 14H1.99471C1.62936 13.9996 1.33337 13.7034 1.33337 13.338V2.662ZM13.3334 3.33333H2.66671V12.6667L8.86137 6.47067C9.12171 6.21041 9.54371 6.21041 9.80404 6.47067L13.3334 10.0067V3.33333ZM4.00004 6C4.00004 6.73638 4.59699 7.33333 5.33337 7.33333C6.06975 7.33333 6.66671 6.73638 6.66671 6C6.66671 5.26362 6.06975 4.66667 5.33337 4.66667C4.59699 4.66667 4.00004 5.26362 4.00004 6Z"/></svg>

<svg width="16" height="16" xmlns="http://www.w3.org/2000/svg"><path fill-rule="evenodd" clip-rule="evenodd" d="M1.333 2.662A.667.667 0 0 1 1.995 2h12.01c.366 0 .662.297.662.662v10.676a.667.667 0 0 1-.662.662H1.995a.662.662 0 0 1-.662-.662V2.662Zm12 .671H2.667v9.334L8.86 6.47c.26-.26.683-.26.943 0l3.53 3.536V3.333ZM4 6a1.333 1.333 0 1 0 2.667 0A1.333 1.333 0 0 0 4 6Z"/></svg>
